X:299
T:Rosemary Lane
R:jig
C:Joseph M. Crofts
Z:id:hn-jig-299
M:6/8
K:D
~F3 DFA|dfe dcB|AdB AFD|FEE EAG|
~F3 DFA|dfe dcB|Ade f/g/af|1 gec d3:|2 gec d2f||
|:~a3 fdf|~g3 efg|fed Bcd|edB A3|
~d3 AFA|Bed cde|f/g/af gec|1 edc d2f:|2 edc d3||

